X: 1
T: Don't Stop Running
M: 6/8
L: 1/8
R: jig
K: Bmin
||: ~f2B BAB | cdc BAB | ~f2B BAB | fgf edc |
~f2B BAB | cdc BAB | ~f2B BAB | GBF BEB :||
||: ~B2A FAB | cdc BAB | ~B2A FAB | cdc dcd |
~B2A FAB | cdc BAB | ~B2A FAB | cdc ecd :||
||: fbb aba | gfd efg | fbb aba | gfe dBB |
fbb aba | gfd efg | fbb aba | gfd cGB :||
